X:1
T:Title
%%score { ( 1 3 ) | ( 2 4 ) }
L:1/8
Q:1/4=92
M:4/4
K:Eb
V:1 treble nm="Grand Piano"
V:3 treble 
V:2 bass 
V:4 bass 
V:1
 BGA=A BEF_G | G2 G6 | BcBG E2 F2 | G6[K:bass] z2 | BGA=A BEF_G | G2 G6 | GEDE G2 E2 | %7
w: James~V.~Reid * * * * * * *|||||||
 F6[K:bass] z2 | G2- [G-c][Gd] [CGc]2 G2 | GGEF G2 G2 | %10
w: |||
 [_Gc]2 [B,=GB][B,EG] [G,CE]2 [B,DF]>[B,DF] |[M:3/4] [B,EG]6 |[M:1/4] [EB]2 | %13
w: |||
[M:4/4] [Ee]3 [Ee] [Fd]2 c-[_Gc] |[M:9/8] [GB]2 [EG]- [EG] [CE]2- [CE] [Ec]2 | %15
w: ||
[M:4/4] [EB]2 [EB][Ec] [EG] [DF]3 | E6 z2 |] %17
w: ||
V:2
 [G,B,E][E,B,E][F,B,E][_G,CE] [=G,B,E][G,B,][A,CE][=A,CE] | [B,E]2 [B,E]6 | %2
 [E,G,E][E,_G,E][E,=G,E][E,B,E] [E,C]2 [E,=B,E]2 | [B,E]6 z2 | %4
 [G,B,E][E,B,E][F,B,E][_G,CE] [=G,B,E][G,B,][A,B,D][A,CE] | [B,E]2 [B,E]6 | %6
 [E,B,E][E,G,B,][E,_G,B,][E,=G,B,] [E,B,E]2 [_G,=A,C]2 | [A,D]6 z2 | z2 CD z2 G,2 | %9
 E,B,,C,D, E,2 E,2 | [E,=A,]2 E,B,, C,2 B,,>B,, |[M:3/4] E,2 D,>D, C,2 |[M:1/4] [B,,G,]2 | %13
[M:4/4] [G,,B,]3 [G,,B,] [A,,A,]2 [A,,A,]2 | %14
[M:9/8] [B,,G,]2 [B,,B,]- [B,,B,] [C,=A,]2- [C,A,] [A,,_G,]2 | %15
[M:4/4] [B,,G,]2 [B,,G,][B,,G,] [B,,B,] [B,,A,]3 | [G,B,]2 _G,2 =G,2 z2 |] %17
V:3
 x8 | x8 | x8 | z[K:bass] B,,C,D, E,2 z2 | x8 | x8 | x8 | z2[K:bass] D,C, =B,, ._B,,3 | %8
 [B,B]2 z2 z4 | [B,B]4 [B,B]4 | x8 |[M:3/4] x6 |[M:1/4] x2 |[M:4/4] z4 z2 .F2 |[M:9/8] x9 | %15
[M:4/4] x8 | z2 =A,2 B,2 z2 |] %17
V:4
 x8 | x8 | x8 | x8 | x8 | x8 | x8 | x8 | E,4 E,4 | x8 | x8 |[M:3/4] x6 |[M:1/4] x2 |[M:4/4] x8 | %14
[M:9/8] x9 |[M:4/4] x8 | E,6 z2 |] %17

